X: 22188
T: La Belle S'est Endormie
R: polka
M: 2/4
K: Ddorian
|:AD- DA D2 A2|D4 EFGA|FAcB A2 G2|A4 D2 G2|
AD- DA D2 A2|D4 EFGA|FAcB A2 G2|1 E8:|2 A8||
|:A3G F2 D2|A2 G2 F2 DA|T_A3F D2 =A2|T_A3G F2 D2|
A3G F2 D2|A2 G2 F2 DA|GFGA G2 F2|E8:|

